X:1
T:Plaisir d'amour
T:MARTINI
T:Plaisir d'amour
C:MARTINI
%%score 1 2
L:1/8
Q:1/4=71
M:6/8
K:G
V:1 bass nm="Violoncelle" snm="Vlc"
V:2 bass nm="Violoncelle" snm="Vlc"
V:1
"^Adagio" z6 | z6 | z6 | z6 | z6 | z6 | z6 | z2 z z2!mf! D, | G,3 A,3 | B,3- B, z B, | %10
 C2 C (B,A,)B, | A,3- A, z D, | E,3 F,3 | G,A,B, E,A,C | (B,3 A,3) | G,3 z2 z | z6 | z6 | z6 | z6 | %20
 z2 z z2 G, || D3 E3 | DEF{/A} GFE | (D3 C3) | B,3- B, z z | ^C3 D2 ^D | E2 F (GF)E | D3 ^C3 | %28
 D3- D z D, || G,3 A,3 | B,3- B, z B, | C2 C (B,A,)B, | A,3- A, z D, | E,3 F,3 | G,A,B, E,A,C | %35
 B,3 A,2 B, | G,3 z2 z ||[K:Bb]!p! B,3 B,2 B, | A,3 A,2 A, | B,3 B,2 B, | A,3 z2 A, | %41
"_cresc." B,2 B, C2 C | (DC)D (EF)G |!mf! (D3 C2) z | z6 | C3 (CD)E | F3- F3 | CCC (CD)E | %48
 (F2 D) B,3 | A,3 (A,G,)^F, | G,3- G,2 D | C2 C (B,G,)B, |"^rit." (B,3 A,2) ||[K:G]!mf! D, | %54
"^a tempo" G,3 A,3 | B,3- B, z B, | C2 C (B,A,)B, | A,3- A, z D, | E,3 F,3 | G,A,B, E,A,C | %60
 (B,3 A,2 B,) | G,3 z2 z | z6 | z6 | z6 |"^rall." z6 | z6 |] %67
V:2
 z6 | z6 | z6 | z6 | z6 | z6 | z6 | z2 z z2!mf! B,, | B,,3 D,3 | G,3- G, z G, | A,2 A, (G,D,)G, | %11
 F,3- F, z D, | ^C,3 =C,3 | B,,D,G, C,E,A, | (G,3 D,3) | B,,3 z2 z | z6 | z6 | z6 | z6 | %20
 z2 z z2 G, || B,3 C3 | B,CD{/F} EDC | (B,3 A,3) | G,3- G, z z | A,3 A,2 A, | G,2 A, (B,A,)G, | %27
 F,3 A,3 | F,3- F, z C, || B,,3 D,3 | G,3- G, z G, | A,2 A, (G,D,)G, | F,3- F, z D, | ^C,3 =C,3 | %34
 B,,D,G, C,E,A, | G,3 F,2 F, | G,3 z2 z ||[K:Bb]!p! G,3 G,2 G, | ^F,3 F,2 F, | G,3 G,2 G, | %40
 ^F,3 z2 z |"_cresc." z D,G,- G,F,A, | (B,A,)B, (CD)E |!mf! (B,3 A,2) z | z6 | z6 | B,3 (B,C)D | %47
 E3- E z z | B,B,B, (B,C)D | C3 (CB,)A, | B,3- B,2 B, | A,2 A, (G,D,)G, | (G,3 ^F,2) || %53
[K:G]!mf! C, | B,,3 D,3 | G,3- G, z G, | A,2 A, (G,D,)G, | F,3- F, z D, | ^C,3 =C,3 | %59
 B,,D,G, C,E,A, | (G,3 F,2 F,) | G,3 z2 z | z6 | z6 | z6 | z6 | z6 |] %67

